X: 25020
T: Maid That Tends The Goats, The
R: strathspey
M: 4/4
K: Edorian
(3FGA|B3E GBA2-|ABGA (3GFE (3FGA|B2AB DEG2|AFBA (3GFE E2|
B2EE GBA2-|ABGA (3GFE (3FGA|B2AB DEG2|AFBA (3GFE E2||
|:d2~BAGAF2-|FGGA dBBA|BEGd BAAA-|
ABGA (3GFE (3FGA|B2AB E2DE|GFBA (3GFE E2:|

